assets/img/confs/ngpoland.svg

<svg viewBox="0 0 595.28 649.47" xmlns="http://www.w3.org/2000/svg"><path d="m99.47 598.11-25-34.24v34.24h-15.28v-59.17h15.7l24 32.56v-32.56h15.31v59.17z" fill="#c41633"/><path d="m121.82 568.57c0-18.81 14.37-30.61 32-30.61 13.22 0 21.2 7 25.28 14.37l-12.74 6.67a14.66 14.66 0 0 0 -12.51-7.54c-9.67 0-16.5 7.45-16.5 17.12s6.83 17.12 16.5 17.12a18.7 18.7 0 0 0 10.91-3.55v-4.61h-13.31v-13.4h28.55v23.52a34.21 34.21 0 0 1 -26.17 11.53c-17.64-.01-32.01-11.81-32.01-30.62z" fill="#c41633"/><g fill="#002b54"><path d="m189 598.11v-59.17h29.64c13.31 0 20.58 9 20.58 19.69s-7.27 19.61-20.58 19.61h-14.41v19.87zm34.7-39.48c0-4.08-3-6.39-7.1-6.39h-12.37v12.69h12.34c4.08 0 7.1-2.31 7.1-6.3z"/><path d="m243 568.57c0-18 13.58-30.61 31.68-30.61s31.58 12.6 31.58 30.61-13.48 30.61-31.58 30.61-31.68-12.6-31.68-30.61zm47.73 0c0-9.67-6.29-17.12-16.05-17.12s-16.15 7.45-16.15 17.12 6.3 17.12 16.15 17.12 16.05-7.54 16.05-17.12z"/><path d="m314 598.11v-59.17h15.26v45.86h23.74v13.31z"/><path d="m401.09 598.11-2.93-8.51h-23.33l-2.93 8.51h-17.3l22.27-59.17h19.13l22.36 59.17zm-14.64-44.11-7.54 22.27h15.09z"/><path d="m463 598.11-25-34.24v34.24h-15.27v-59.17h15.71l23.95 32.56v-32.56h15.35v59.17z"/><path d="m488.38 598.11v-59.17h24.84c18.63 0 32 11.18 32 29.54s-13.4 29.63-31.94 29.63zm41.26-29.63c0-9.14-5.5-16.24-16.33-16.24h-9.67v32.56h9.58c10.38 0 16.42-7.54 16.42-16.32z"/></g><path d="m301.99 507.23-191.47-98.97-31.75-320.52 223.22-54.36z" fill="#de0931"/><path d="m301.99 507.23 191.48-98.97 29.17-294.56-220.65-31.77z" fill="#c41633"/><path d="m444.31 404.84-142.44-309.28-142.44 309.28h52.68l28.81-67.32h121.9l28.81 67.32zm-142.44-114.15h-40.87l40.91-95.61 40.91 95.61z" fill="#fff"/></svg>

<svg xmlns="http://www.w3.org/2000/svg" viewBox="0 0 595.28 649.47"><title>1Artboard 1</title><path d="M99.47,598.11l-25-34.24v34.24H59.19V538.94h15.7l24,32.56V538.94H114.2v59.17Z" style="fill:#c41633"/><path d="M121.82,568.57c0-18.81,14.37-30.61,32-30.61,13.22,0,21.2,7,25.28,14.37L166.36,559a14.66,14.66,0,0,0-12.51-7.54c-9.67,0-16.5,7.45-16.5,17.12s6.83,17.12,16.5,17.12a18.7,18.7,0,0,0,10.91-3.55v-4.61H151.45v-13.4H180v23.52a34.21,34.21,0,0,1-26.17,11.53C136.19,599.18,121.82,587.38,121.82,568.57Z" style="fill:#c41633"/><path d="M189,598.11V538.94h29.64c13.31,0,20.58,9,20.58,19.69s-7.27,19.61-20.58,19.61H204.23v19.87Zm34.7-39.48c0-4.08-3-6.39-7.1-6.39H204.23v12.69h12.34C220.65,564.93,223.67,562.62,223.67,558.63Z" style="fill:#002b54"/><path d="M243,568.57c0-18,13.58-30.61,31.68-30.61s31.58,12.6,31.58,30.61-13.48,30.61-31.58,30.61S243,586.58,243,568.57Zm47.73,0c0-9.67-6.29-17.12-16.05-17.12s-16.15,7.45-16.15,17.12,6.3,17.12,16.15,17.12S290.73,578.15,290.73,568.57Z" style="fill:#002b54"/><path d="M314,598.11V538.94h15.26V584.8H353v13.31Z" style="fill:#002b54"/><path d="M401.09,598.11l-2.93-8.51H374.83l-2.93,8.51H354.6l22.27-59.17H396l22.36,59.17ZM386.45,554l-7.54,22.27H394Z" style="fill:#002b54"/><path d="M463,598.11l-25-34.24v34.24H422.73V538.94h15.71l23.95,32.56V538.94h15.35v59.17Z" style="fill:#002b54"/><path d="M488.38,598.11V538.94h24.84c18.63,0,32,11.18,32,29.54s-13.4,29.63-31.94,29.63Zm41.26-29.63c0-9.14-5.5-16.24-16.33-16.24h-9.67V584.8h9.58C523.6,584.8,529.64,577.26,529.64,568.48Z" style="fill:#002b54"/><polygon points="301.99 507.23 110.52 408.26 78.77 87.74 301.99 33.38 301.99 507.23" style="fill:#de0931"/><polygon points="301.99 507.23 493.47 408.26 522.64 113.7 301.99 81.93 301.99 507.23" style="fill:#c41633"/><path d="M444.31,404.84,301.87,95.56,159.43,404.84h52.68l28.81-67.32h121.9l28.81,67.32ZM301.87,290.69H261l40.91-95.61,40.91,95.61Z" style="fill:#fff"/></svg>
